public/library/redotpay-text-light.svg

<svg width="269" height="56" viewBox="0 0 269 56" fill="none" xmlns="http://www.w3.org/2000/svg">
<path d="M13.3636 40.4072C13.3636 44.8945 13.3435 49.3619 13.3838 53.8492C13.3838 54.7267 13.1822 55.0458 12.2345 55.0259C8.78659 54.9661 5.33867 54.986 1.89075 55.0059C1.12455 55.0059 0.862427 54.8065 0.862427 54.0088C0.88259 45.1139 0.721284 36.2389 0.922917 27.3441C1.08422 19.3267 4.29018 12.506 10.4198 7.12116C13.5854 4.34899 17.235 2.33467 21.3483 1.31755C25.7237 0.240587 30.1596 0.0610936 34.6359 1.07822C44.0118 3.23214 50.464 8.81637 54.2144 17.432C56.0089 21.5604 56.634 25.9679 56.0694 30.535C54.9605 39.5496 50.464 46.3504 42.7415 51.1169C38.5879 53.6897 33.9907 54.9062 29.091 54.986C27.0343 55.0059 24.9777 54.9661 22.921 55.0059C22.1952 55.0259 21.9532 54.7666 21.9532 54.0486C21.9734 50.5784 21.9935 47.0883 21.9532 43.6181C21.9532 42.8204 22.2355 42.6209 23.0017 42.6409C24.9172 42.6807 26.8327 42.6807 28.7482 42.6409C34.8778 42.5212 39.3339 39.6493 42.1366 34.3443C46.7742 25.5691 41.3301 15.2183 31.9138 13.0045C24.3325 11.2296 16.4083 15.7767 14.0895 23.3354C13.6258 24.8312 13.4241 26.4266 13.3838 28.0022C13.3032 32.1305 13.3636 36.2788 13.3636 40.4072Z" fill="#FFFFFF"/>
<path d="M22.1759 34.3046C22.1759 31.4328 21.8734 28.6805 22.2565 26.048C22.68 23.1561 25.7448 21.2016 28.124 21.2216C31.33 21.2615 33.5278 22.5379 34.6771 25.1704C36.2297 28.7204 34.2335 33.0282 30.4226 33.9058C28.7289 34.3046 26.9142 34.2049 25.16 34.2847C24.172 34.3445 23.1639 34.3046 22.1759 34.3046Z" fill="#FFFFFF"/>
<path d="M80.3068 34.6603C84.116 33.2696 86.7462 29.3668 86.7462 24.679C86.7462 20.9557 84.955 17.3893 82.0527 15.3707C79.5812 13.666 76.9737 13.3071 73.5499 13.3071H63.6641V47.849H69.0378V18.6678H72.6883C75.6813 18.6678 77.6539 18.6678 79.1277 19.9912C80.4655 21.2024 81.1231 22.7501 81.1231 24.7463C81.1231 27.9313 78.7423 30.0846 75.2278 30.0846H70.1942L81.2364 47.849H87.6305L79.9667 35.6023C79.7399 35.221 79.9213 34.7948 80.3068 34.6603Z" fill="#FFFFFF"/>
<path d="M102.278 20.4402C94.2511 20.4402 88.4238 26.2271 88.4238 34.1896C88.4238 41.7933 94.5685 47.9839 102.142 47.9839C107.946 47.9839 112.481 44.7989 114.907 39.0345C114.907 39.0345 115.565 37.9354 115.338 37.6887C115.179 37.5092 114.68 37.5541 114.68 37.5541H110.259C110.259 37.5541 109.896 37.5541 109.692 37.6438C109.511 37.7335 109.397 38.1821 109.397 38.1821C107.992 41.1877 105.293 42.8924 102.051 42.8924C97.8562 42.8924 94.7272 40.2681 93.9563 36.2532H114.68C114.68 36.2532 115.27 36.3205 115.519 36.0962C115.814 35.827 115.769 34.9522 115.769 34.9522C115.746 26.4065 110.214 20.4402 102.278 20.4402ZM94.1377 31.4981C95.1353 27.7523 98.0149 25.4869 101.824 25.4869C105.951 25.4869 108.581 27.4607 109.851 31.4981H94.1377Z" fill="#FFFFFF"/>
<path d="M160.12 20.3516C152.705 20.3516 146.674 26.5646 146.674 34.2356C146.674 41.8169 152.796 47.985 160.346 47.985C167.829 47.985 173.928 41.6823 173.928 33.9216C173.928 26.43 167.738 20.3516 160.12 20.3516ZM160.346 42.871C155.653 42.871 152.093 39.1253 152.093 34.1683C152.093 28.6954 156.152 25.4207 160.074 25.4207C164.949 25.4207 168.509 29.0767 168.509 34.1234C168.509 39.1253 164.994 42.871 160.346 42.871Z" fill="#FFFFFF"/>
<path d="M263.036 21.0459L255.916 38.6981L249.114 21.0459H243.219L253.014 46.0999L249.295 55.027H254.987L268.999 21.0459H263.036Z" fill="#FFFFFF"/>
<path d="M144.7 13.3293H139.462C139.439 13.3293 139.439 13.3293 139.439 13.3518V23.3555C137.24 21.5386 134.451 20.5966 131.277 20.5966C123.567 20.5966 117.74 26.4508 117.74 34.2115C117.74 41.9049 123.681 47.9609 131.277 47.9609C134.315 47.9609 137.195 46.974 139.439 45.202V47.3104C139.439 47.3329 139.439 47.3329 139.462 47.3329H144.7C144.722 47.3329 144.722 47.3329 144.722 47.3104L144.7 13.3293ZM131.458 42.9142C127.354 42.9142 123.114 39.5946 123.114 34.032C123.114 29.3666 126.81 25.5536 131.367 25.5536C134.972 25.5536 138.804 28.5367 139.439 33.1124V35.6245C138.827 39.5722 135.29 42.9142 131.458 42.9142Z" fill="#FFFFFF"/>
<path d="M241.566 21.1348H236.329C236.306 21.1348 236.306 21.1348 236.306 21.1572V23.3329C234.152 21.5385 231.409 20.5964 228.348 20.5964C220.48 20.5964 214.539 26.4955 214.539 34.3459C214.539 42.1066 220.366 47.9608 228.075 47.9608C231.204 47.9608 234.129 46.9514 236.306 45.1795V47.3103C236.306 47.3327 236.306 47.3327 236.329 47.3327H241.566C241.589 47.3327 241.589 47.3327 241.589 47.3103L241.566 21.1348C241.589 21.1348 241.589 21.1348 241.566 21.1348ZM228.166 42.9141C223.609 42.9141 219.913 39.1234 219.913 34.4356C219.913 28.873 224.153 25.5534 228.257 25.5534C232.316 25.5534 236.034 29.2992 236.306 33.5384V34.5926C236.034 39.5944 231.975 42.9141 228.166 42.9141Z" fill="#FFFFFF"/>
<path d="M209.842 14.7875C207.756 13.5763 204.989 13.3296 201.52 13.3296H197.938H195.172H194.514C193.97 13.3296 193.539 13.7558 193.539 14.2941V46.8845C193.539 47.4228 193.97 47.849 194.514 47.849H197.938C198.482 47.849 198.913 47.4228 198.913 46.8845V34.2341H202.087C206.055 34.2341 208.459 33.6958 210.431 32.4173C213.22 30.5781 214.875 27.3258 214.875 23.6921C214.83 19.8567 213.061 16.6941 209.842 14.7875ZM202.518 28.8286H198.89V18.6679H202.246C207.982 18.6679 209.161 20.7314 209.161 23.8267C209.139 26.294 208.368 28.8286 202.518 28.8286Z" fill="#FFFFFF"/>
<path d="M190.321 42.1515H187.169C187.169 42.1515 187.169 42.1515 187.147 42.1515C185.061 41.2544 184.743 38.4731 184.721 36.9703V36.2525C184.721 36.1852 184.721 35.9834 184.721 35.9834V27.5049H188.983C189.505 27.5049 189.936 27.0787 189.936 26.5629V23.2208C189.936 22.7049 189.505 22.2788 188.983 22.2788H184.721V18.8022C184.721 18.2863 184.29 17.8601 183.768 17.8601H180.39C179.868 17.8601 179.438 18.2863 179.438 18.8022V22.2563H175.288C174.767 22.2563 174.336 22.6825 174.336 23.1984V26.5404C174.336 27.0563 174.767 27.4825 175.288 27.4825H179.438V40.402C179.506 41.7702 180.14 46.2338 185.56 47.288C185.696 47.3104 185.718 47.3552 185.854 47.3777H190.321C190.843 47.3777 191.273 46.9515 191.273 46.4356V43.0936C191.273 42.5777 190.843 42.1515 190.321 42.1515Z" fill="#FFFFFF"/>
</svg>

<svg xmlns="http://www.w3.org/2000/svg" width="269" height="56" fill="none" viewBox="0 0 269 56"><path fill="#fff" d="M13.364 40.407c0 4.488-.02 8.955.02 13.442 0 .878-.202 1.197-1.15 1.177-3.447-.06-6.895-.04-10.343-.02-.766 0-1.029-.2-1.029-.997.02-8.895-.14-17.77.06-26.665.162-8.017 3.368-14.838 9.498-20.223 3.165-2.772 6.815-4.786 10.928-5.803C25.724.24 30.16.06 34.636 1.078c9.376 2.154 15.828 7.738 19.578 16.354 1.795 4.128 2.42 8.536 1.855 13.103-1.108 9.015-5.605 15.815-13.327 20.582-4.154 2.573-8.751 3.79-13.651 3.869-2.057.02-4.113-.02-6.17.02-.726.02-.968-.24-.968-.957.02-3.47.04-6.96 0-10.43 0-.799.282-.998 1.049-.978q2.872.06 5.746 0c6.13-.12 10.586-2.992 13.389-8.297 4.637-8.775-.807-19.126-10.223-21.34-7.582-1.774-15.506 2.773-17.825 10.331-.463 1.496-.665 3.092-.705 4.667-.08 4.128-.02 8.277-.02 12.405"/><path fill="#fff" d="M22.176 34.305c0-2.872-.303-5.625.08-8.257.424-2.892 3.489-4.846 5.868-4.826 3.206.04 5.404 1.316 6.553 3.948 1.553 3.55-.444 7.858-4.254 8.736-1.694.399-3.509.299-5.263.379-.988.06-1.996.02-2.984.02M80.307 34.66c3.809-1.39 6.44-5.293 6.44-9.981 0-3.723-1.792-7.29-4.694-9.308-2.472-1.705-5.08-2.064-8.503-2.064h-9.886V47.85h5.374V18.668h3.65c2.993 0 4.966 0 6.44 1.323 1.338 1.211 1.995 2.76 1.995 4.755 0 3.185-2.38 5.339-5.895 5.339h-5.034l11.042 17.764h6.394l-7.663-12.247a.63.63 0 0 1 .34-.942M102.278 20.44c-8.027 0-13.854 5.787-13.854 13.75 0 7.603 6.144 13.794 13.718 13.794 5.804 0 10.339-3.185 12.765-8.95 0 0 .658-1.099.431-1.345-.159-.18-.658-.135-.658-.135h-4.421s-.363 0-.567.09c-.181.09-.295.538-.295.538-1.405 3.006-4.104 4.71-7.346 4.71-4.195 0-7.324-2.624-8.095-6.639h20.724s.59.068.839-.157c.295-.269.25-1.144.25-1.144-.023-8.545-5.555-14.512-13.491-14.512m-8.14 11.058c.997-3.746 3.877-6.011 7.686-6.011 4.127 0 6.757 1.974 8.027 6.011zM160.12 20.352c-7.415 0-13.446 6.213-13.446 13.884 0 7.58 6.122 13.749 13.672 13.749 7.483 0 13.582-6.303 13.582-14.063 0-7.492-6.19-13.57-13.808-13.57m.226 22.519c-4.693 0-8.253-3.746-8.253-8.703 0-5.473 4.059-8.747 7.981-8.747 4.875 0 8.435 3.656 8.435 8.702 0 5.002-3.515 8.748-8.163 8.748M263.036 21.046l-7.12 17.652-6.802-17.652h-5.895l9.795 25.054-3.719 8.927h5.692l14.012-33.981zM144.7 13.33h-5.238c-.023 0-.023 0-.023.022v10.003c-2.199-1.816-4.988-2.758-8.162-2.758-7.71 0-13.537 5.854-13.537 13.615 0 7.693 5.941 13.749 13.537 13.749 3.038 0 5.918-.987 8.162-2.759v2.108c0 .023 0 .023.023.023h5.238c.022 0 .022 0 .022-.023zm-13.242 29.584c-4.104 0-8.344-3.32-8.344-8.882 0-4.665 3.696-8.478 8.253-8.478 3.605 0 7.437 2.983 8.072 7.558v2.512c-.612 3.948-4.149 7.29-7.981 7.29M241.566 21.135h-5.237c-.023 0-.023 0-.023.022v2.176c-2.154-1.794-4.897-2.737-7.958-2.737-7.868 0-13.809 5.9-13.809 13.75 0 7.76 5.827 13.615 13.536 13.615 3.129 0 6.054-1.01 8.231-2.782v2.131c0 .023 0 .023.023.023h5.237c.023 0 .023 0 .023-.023zq.035 0 0 0m-13.4 21.78c-4.557 0-8.253-3.792-8.253-8.48 0-5.562 4.24-8.882 8.344-8.882 4.059 0 7.777 3.746 8.049 7.985v1.055c-.272 5.001-4.331 8.321-8.14 8.321M209.842 14.788c-2.086-1.212-4.853-1.458-8.322-1.458h-7.006a.963.963 0 0 0-.975.964v32.59c0 .539.431.965.975.965h3.424a.963.963 0 0 0 .975-.964v-12.65h3.174c3.968 0 6.372-.54 8.344-1.818 2.789-1.839 4.444-5.091 4.444-8.725-.045-3.835-1.814-6.998-5.033-8.904m-7.324 14.04h-3.628v-10.16h3.356c5.736 0 6.915 2.063 6.915 5.159-.022 2.467-.793 5.002-6.643 5.002M190.321 42.152h-3.174c-2.086-.898-2.404-3.679-2.426-5.182v-9.465h4.262a.953.953 0 0 0 .953-.942V23.22a.953.953 0 0 0-.953-.942h-4.262v-3.477a.953.953 0 0 0-.953-.942h-3.378a.95.95 0 0 0-.952.942v3.454h-4.15a.953.953 0 0 0-.952.942v3.342c0 .516.431.943.952.943h4.15v12.919c.068 1.368.702 5.832 6.122 6.886.136.022.158.067.294.09h4.467a.95.95 0 0 0 .952-.942v-3.342a.95.95 0 0 0-.952-.943"/></svg>
